X:262
T: HOFFE HERZ NUR MIT GEDULD
N: B0741
O: Europa, Mitteleuropa, Deutschland, Thueringen, Sachsen, Hessen
R: Moral - Lied, religioes
M: 4/4
L: 1/16
K: G
 | G2B2B2d2d6e2 | d4A2c2c4B4 |
d6B2e3dc2B2 | B4A4z8 |
G2B2B2d2d6e2 | d4A2c2c4B4 |
d6B2e3dc2B2 | B4A4z8 |
A6c2B6d2 | A6c2B8 |
e6e2d4e2dc | B4A4G8

@@@ Tune index: 2480
